packages/katcn/src/icons/svg/earbuds.svg

<svg width="24" height="25" viewBox="0 0 24 25" fill="none" xmlns="http://www.w3.org/2000/svg">
<path d="M8.9 21.312C7.5 21.312 6.4 20.212 6.4 18.812V13.812C3.4 13.812 1 11.512 1 8.51201C1 5.61201 3.3 3.31201 6.2 3.31201C9.1 3.31201 11.4 5.61201 11.4 8.51201V18.712C11.4 19.412 11.1 20.012 10.6 20.512C10.2 21.012 9.6 21.312 8.9 21.312ZM8.4 12.612V18.812C8.4 19.212 9 19.512 9.3 19.212C9.4 19.112 9.5 19.012 9.5 18.812V8.51201C9.5 6.71201 8 5.31201 6.2 5.31201C4.4 5.31201 3 6.71201 3 8.51201C3 10.312 4.4 11.812 6.2 11.812C6.5 11.812 6.8 11.712 7.1 11.712C7.9 11.512 8.4 12.112 8.4 12.612Z" fill="black"/>
<path d="M15.1 21.312C14.4 21.312 13.8 21.012 13.3 20.512C12.8 20.012 12.6 19.412 12.6 18.712V8.51201C12.6 5.61201 14.9 3.31201 17.8 3.31201C20.7 3.31201 23 5.61201 23 8.51201C23 11.412 20.6 13.812 17.6 13.712V18.712C17.6 20.212 16.5 21.312 15.1 21.312ZM17.8 5.31201C16 5.31201 14.6 6.71201 14.6 8.51201V18.712C14.6 18.812 14.7 19.012 14.8 19.112C15.1 19.512 15.7 19.212 15.7 18.712V12.612C15.7 11.912 16.4 11.512 17 11.612C17.3 11.712 17.6 11.712 17.9 11.712C19.6 11.812 21 10.312 21 8.51201C21 6.71201 19.6 5.31201 17.8 5.31201Z" fill="black"/>
</svg>

<svg xmlns="http://www.w3.org/2000/svg" fill="none" viewBox="0 0 24 25"><path fill="#000" d="M8.9 21.312c-1.4 0-2.5-1.1-2.5-2.5v-5c-3 0-5.4-2.3-5.4-5.3 0-2.9 2.3-5.2 5.2-5.2s5.2 2.3 5.2 5.2v10.2c0 .7-.3 1.3-.8 1.8-.4.5-1 .8-1.7.8m-.5-8.7v6.2c0 .4.6.7.9.4.1-.1.2-.2.2-.4v-10.3c0-1.8-1.5-3.2-3.3-3.2S3 6.712 3 8.512s1.4 3.3 3.2 3.3c.3 0 .6-.1.9-.1.8-.2 1.3.4 1.3.9m6.7 8.7c-.7 0-1.3-.3-1.8-.8s-.7-1.1-.7-1.8v-10.2c0-2.9 2.3-5.2 5.2-5.2s5.2 2.3 5.2 5.2-2.4 5.3-5.4 5.2v5c0 1.5-1.1 2.6-2.5 2.6m2.7-16c-1.8 0-3.2 1.4-3.2 3.2v10.2c0 .1.1.3.2.4.3.4.9.1.9-.4v-6.1c0-.7.7-1.1 1.3-1 .3.1.6.1.9.1 1.7.1 3.1-1.4 3.1-3.2s-1.4-3.2-3.2-3.2"/></svg>
